T: Birthday, The
M: 2/4
L: 1/8
K: Amaj
|A>B ca|f2 ec|f>e cB|ce fe|A>B ca|f2 ec|f>e cB|1ce ef:|2ce fe|!|a2A>B|ce fe|aA ca|fe ce|a2A>B|ce fe|ac fe|cB BA|!a2A>B|ce fe|aA ca|fe cB|cf fe|aA Ac|cB ac|cB B2||!
